static/assets/img/icons/theme/devices/iphone-back.svg

<svg height="24" viewBox="0 0 24 24" width="24" xmlns="http://www.w3.org/2000/svg"><g fill="none" fill-rule="evenodd"><path d="m0 0h24v24h-24z" opacity="0"/><path d="m8 2h8c1.1045695 0 2 .8954305 2 2v16c0 1.1045695-.8954305 2-2 2h-8c-1.1045695 0-2-.8954305-2-2v-16c0-1.1045695.8954305-2 2-2zm0 1c-.55228475 0-1 .44771525-1 1s.44771525 1 1 1h2c.5522847 0 1-.44771525 1-1s-.4477153-1-1-1z" fill="#000"/></g></svg>

<svg width="24px" height="24px" viewBox="0 0 24 24" version="1.1" xmlns="http://www.w3.org/2000/svg" xmlns:xlink="http://www.w3.org/1999/xlink">
    <title>Icon For iPhone-back</title>
    <g stroke="none" stroke-width="1" fill="none" fill-rule="evenodd">
        <rect opacity="0" x="0" y="0" width="24" height="24"></rect>
        <path d="M8,2 L16,2 C17.1045695,2 18,2.8954305 18,4 L18,20 C18,21.1045695 17.1045695,22 16,22 L8,22 C6.8954305,22 6,21.1045695 6,20 L6,4 C6,2.8954305 6.8954305,2 8,2 Z M8,3 C7.44771525,3 7,3.44771525 7,4 C7,4.55228475 7.44771525,5 8,5 L10,5 C10.5522847,5 11,4.55228475 11,4 C11,3.44771525 10.5522847,3 10,3 L8,3 Z" fill="#000000"></path>
    </g>
</svg>
